app/assets/svgs/soundcloud.svg

<?xml version="1.0" encoding="UTF-8" standalone="no"?>
<svg width="75px" height="42px" viewBox="0 0 75 42" version="1.1" xmlns="http://www.w3.org/2000/svg" xmlns:xlink="http://www.w3.org/1999/xlink">
    <!-- Generator: Sketch 3.7.2 (28276) - http://www.bohemiancoding.com/sketch -->
    <title>soundcloud</title>
    <desc>Created with Sketch.</desc>
    <defs></defs>
    <g id="Page-1" stroke="none" stroke-width="1" fill="none" fill-rule="evenodd">
        <g id="soundcloud-icon" fill="#FFFFFF">
            <path d="M0,34.188753 C0,35.1191536 0.337300586,35.8226377 1.01175877,36.2994912 C1.68628845,36.7762732 2.40728811,36.944852 3.17482925,36.8053706 C3.89582891,36.6658176 4.4017083,36.4099468 4.6925389,36.0378294 C4.98322652,35.6657121 5.12864182,35.0493056 5.12864182,34.188753 L5.12864182,24.0711653 C5.12864182,23.3500942 4.87863331,22.7395501 4.3785448,22.2395331 C3.87852778,21.7394446 3.26798369,21.489436 2.54691254,21.489436 C1.84914787,21.489436 1.25025702,21.7394446 0.750168513,22.2395331 C0.250080002,22.7395501 0,23.3500942 0,24.0711653 L0,34.188753 L0,34.188753 L0,34.188753 Z M8.02429371,38.514894 C8.02429371,39.1894952 8.26272047,39.6953031 8.7395025,40.0326037 C9.21635602,40.3699042 9.82690011,40.538483 10.5711348,40.538483 C11.3386759,40.538483 11.9608017,40.3698327 12.4376553,40.0326037 C12.9144373,39.6953746 13.152864,39.1894952 13.152864,38.514894 L13.152864,14.9304481 C13.152864,14.2326835 12.902784,13.6337211 12.402767,13.1337041 C11.9026785,12.6336871 11.2921344,12.3836071 10.5711348,12.3836071 C9.87337009,12.3836071 9.27440775,12.6336871 8.77439073,13.1337041 C8.27430222,13.6337926 8.02429371,14.2326835 8.02429371,14.9304481 L8.02429371,38.514894 L8.02429371,38.514894 Z M16.0136992,39.6313175 C16.0136992,40.3058472 16.2579168,40.8117265 16.7463521,41.1490271 C17.2347874,41.4862562 17.8627756,41.6549065 18.6303882,41.6549065 C19.3746229,41.6549065 19.9851669,41.4862562 20.461949,41.1490271 C20.9388025,40.8117265 21.1772292,40.3058472 21.1772292,39.6313175 L21.1772292,18.1052774 C21.1772292,17.3842777 20.9271492,16.7678713 20.4271322,16.256201 C19.9270437,15.7445307 19.3281529,15.4887314 18.6303882,15.4887314 C17.909317,15.4887314 17.2929821,15.7445307 16.7813118,16.256201 C16.2696416,16.7678713 16.0137707,17.3842777 16.0137707,18.1052774 L16.0137707,39.6313175 L16.0136992,39.6313175 Z M24.0379929,39.7359822 C24.0379929,41.0152651 24.8985455,41.6549065 26.6197222,41.6549065 C28.3408274,41.6549065 29.20138,41.0152651 29.20138,39.7359822 L29.20138,4.84774865 C29.20138,2.89400757 28.60828,1.78923734 27.4220801,1.53336646 C26.6545389,1.34727205 25.8985795,1.56825469 25.1543449,2.1962429 C24.4100387,2.8242311 24.0379214,3.70801869 24.0379214,4.84774865 L24.0379214,39.7359822 L24.0379929,39.7359822 Z M32.201911,40.747741 L32.201911,2.78934287 C32.201911,1.57990794 32.5623751,0.858908274 33.2834463,0.626272389 C34.8417635,0.254155062 36.3884991,0.0680606523 37.9235813,0.0680606523 C41.4821097,0.0680606523 44.7965633,0.905378257 47.8666564,2.58001347 C50.936821,4.25464868 53.4197479,6.53982797 55.3152943,9.43555136 C57.2109121,12.3313462 58.3098915,15.5235481 58.6122323,19.012443 C60.0309967,18.4076897 61.5427725,18.1053489 63.1476312,18.1053489 C66.4038902,18.1053489 69.189158,19.2566606 71.5033631,21.559284 C73.8176398,23.8619789 74.9748139,26.6297311 74.9748139,29.8627551 C74.9748139,33.119014 73.8176398,35.8984195 71.5033631,38.2010429 C69.189158,40.5036663 66.4155434,41.654978 63.1825194,41.654978 L32.8297563,41.6200898 C32.6203554,41.5503133 32.4633583,41.4223421 32.3586936,41.2363192 C32.2540289,41.0502963 32.201911,40.8872939 32.201911,40.747741 L32.201911,40.747741 L32.201911,40.747741 Z" id="Shape"></path>
        </g>
    </g>
</svg>

<svg width="75" height="42" viewBox="0 0 75 42" xmlns="http://www.w3.org/2000/svg"><title>soundcloud</title><path d="M0 34.189c0 .93.337 1.634 1.012 2.11.674.477 1.395.646 2.163.506.72-.14 1.227-.395 1.518-.767.29-.372.436-.989.436-1.85V24.072c0-.72-.25-1.331-.75-1.831s-1.111-.75-1.832-.75c-.698 0-1.297.25-1.797.75S0 23.35 0 24.07V34.19zm8.024 4.326c0 .674.239 1.18.716 1.518.476.337 1.087.505 1.831.505.768 0 1.39-.168 1.867-.505.476-.338.715-.844.715-1.518V14.93c0-.697-.25-1.296-.75-1.796s-1.11-.75-1.832-.75c-.698 0-1.297.25-1.797.75s-.75 1.099-.75 1.796v23.585zm7.99 1.116c0 .675.244 1.18.732 1.518.489.337 1.117.506 1.884.506.745 0 1.355-.169 1.832-.506.477-.337.715-.843.715-1.518V18.105a2.55 2.55 0 0 0-.75-1.849c-.5-.511-1.099-.767-1.797-.767a2.52 2.52 0 0 0-1.849.767 2.52 2.52 0 0 0-.767 1.85V39.63zm8.024.105c0 1.28.86 1.919 2.582 1.919 1.72 0 2.581-.64 2.581-1.919V4.848c0-1.954-.593-3.059-1.779-3.315-.767-.186-1.523.035-2.268.663-.744.628-1.116 1.512-1.116 2.652v34.888zm8.164 1.012V2.789c0-1.21.36-1.93 1.081-2.163a19.923 19.923 0 0 1 4.64-.558c3.56 0 6.874.837 9.944 2.512 3.07 1.675 5.553 3.96 7.448 6.856 1.896 2.895 2.995 6.088 3.297 9.576a11.445 11.445 0 0 1 4.536-.907c3.256 0 6.041 1.152 8.355 3.454 2.315 2.303 3.472 5.07 3.472 8.304 0 3.256-1.157 6.035-3.472 8.338-2.314 2.303-5.087 3.454-8.32 3.454L32.83 41.62a.817.817 0 0 1-.471-.384c-.105-.186-.157-.349-.157-.488z" fill="#FFF" fill-rule="evenodd"/></svg>
